X:109
T:Loughran's #1* (r)
B:NFID.242a  ("untitled reel")
109lough
S:JL
L:1/8
M:C
R:reel
Q:360
K:G
d^c|BGAF DGG2|ABcA defg|(3agf ge fde^c|d=cAG Add^c|
BGAF DGG2|ABcA defg|(3agf ge fdAf|1 dcAF G2:|2 dcAF G3||
B|defg a2fa|gede d^cA2|defg add2|^cdef g2fe|
defg a2fa|gfde d^cAG|1 FEFG A2BA|dcAF G3:|
[2 FEFG A2fe|dcAF G2DC||

%%%

